;FLAVOR:Marlin
;TIME:2147
;Filament used: 1.39753m
;Layer height: 0.1
;MINX:57.2
;MINY:52.2
;MINZ:0.3
;MAXX:92.8
;MAXY:87.8
;MAXZ:20
;TARGET_MACHINE.NAME:Printrbot Simple
;POSTPROCESSED
;  [CreateThumbnail]
;Generated with Cura_SteamEngine 5.10.2
;
;

M104 S200
M105
M109 S200
G21       ;metric values
G90       ;absolute positioning
M82       ;set extruder to absolute mode
M107      ;start with the fan off
G28 X0 Y0 ;home X/Y
G28 Z0    ;home Z
G92 E0    ;zero the extruded length
G29       ;initiate auto bed leveling sequence
M82 ;absolute extrusion mode
G92 E0
G92 E0
G1 F1500 E-6.5
;LAYER_COUNT:198
;LAYER:0
M107
G0 F3600 X59.39 Y54.552 Z0.3
;TYPE:SKIRT
G1 F1500 E0
G1 F1800 X60.743 Y53.46 E0.08674
G1 X62.722 Y52.474 E0.19705
G1 X64.246 Y52.252 E0.27389
G1 X85.622 Y52.2 E1.34034
G1 X87.679 Y52.622 E1.44511
G1 X89.45 Y53.617 E1.54645
G1 X90.448 Y54.39 E1.60943

; rest removed intentionally
