; HEADER_BLOCK_START
; generated by OrcaSlicer 2.3.0 on 2025-10-23 at 11:46:15
; total layer number: 72
;_GP_TOTAL_LAYER_NUMBER_PLACEHOLDER
; filament_density: 1.24
; filament_diameter: 1.75
; max_z_height: 20.08
; HEADER_BLOCK_END

; THUMBNAIL_BLOCK_START

;
; THUMBNAIL_BLOCK_END

; THUMBNAIL_BLOCK_START

;
; THUMBNAIL_BLOCK_END

; external perimeters extrusion width = 0.42mm
; perimeters extrusion width = 0.45mm
; infill extrusion width = 0.45mm
; solid infill extrusion width = 0.42mm
; top infill extrusion width = 0.45mm
; first layer extrusion width = 0.50mm

; EXECUTABLE_BLOCK_START
EXCLUDE_OBJECT_DEFINE NAME=Cube_id_0_copy_0 CENTER=122.5,122.5 POLYGON=[[112.5,112.5],[132.5,112.5],[132.5,132.5],[112.5,132.5],[112.5,112.5]]
M73 P0 R7
M106 S0
M106 P2 S0
;TYPE:Custom
PRINT_START BED=55 HOTEND=220 CHAMBER=0
M83
M140 S55
M104 S220
G4 P3000
G0 X104.586 Y104.586 Z5 F6000
G0 Z0.2 F600
G1 E3 F1800
G1 X189.586 E3.4 F3000
G1 Y106.586 E0.08 F3000
G1 X104.586 E3.4 F3000
G1 Y189.586 E3.32 F3000
M73 P1 R7
G1 X106.586 E0.08 F3000
G1 Y107.586 E3.28 F3000
G1 X107.586 Z0
M73 P2 R7
G1 X110.586
G1 Z1 F600
G90
G21
M83 ; use relative distances for extrusion
; Filament gcode
M106 S0
M106 P2 S0
;LAYER_CHANGE
;Z:0.2
;HEIGHT:0.2
;BEFORE_LAYER_CHANGE
;0.2
G92 E0

; rest removed intentionally
