;Header Start

;FLAVOR:Marlin
;TIME:6666
;Filament used: 0m
;Layer height: 0.15


;header_type: 3dp
;thumbnail: data:image/png;base64,iVBORw0KGgoAAAANSUhEUgAAASwAAACWCAYAAABkW7XSAAAG2klEQVR4Xu3dMU4sRxSG0XnrYB8QEZMTwSJYATEZGfsgJyaCfbAJEluDHPnJnu6e+1f37XdGctZTVZxb+gS8Qf71/f3918GLAAECDQR+CVaDKTkiAQI/AoLlIhAg0EZAsNqMykEJEBAsd4AAgTYCgtVmVA5KgIBguQMECLQREKw2o3JQAgQEyx0gQKCNgGC1GZWDEiAgWO4AAQJtBASrzagclAABwXIHCBBoIyBYbUbloAQICJY7QIBAGwHBajMqByVAQLDcAQIE2ggIVptROSgBAoLlDhAg0EZAsNqMykEJEBAsd4AAgTYCgtVmVA5KgIBguQMECLQREKw2o3JQAgQEyx0gQKCNgGC1GZWDEiAgWO4AAQJtBASrzagclAABwXIHCBBoIyBYbUbloAQICJY7QIBAGwHBajMqByVAQLDcAQIE2ggIVptROSgBAoLlDhAg0EZAsNqMykEJEBAsd4AAgTYCgtVmVA5KgIBguQMECLQREKw2o3JQAgQEyx0gQKCNgGC1GZWDEiAgWO4AAQJtBASrzagclAABwXIHCBBoIyBYbUbloAQICJY7QIBAGwHBajMqByVAQLDcAQIE2ggIVptROSgBAoLlDhAg0EZAsNqMykEJEBAsd4AAgTYCgtVmVA5KgIBguQMECLQREKw2o3JQAgQEyx0gQKCNgGC1GZWDEiAgWO4AAQJtBASrzagclAABwdrpHXh/f9/pVzbty7q+vp72oKdaCQhWq3FNO+zT09Ph+N+f/Hp8fDwc//Pal4Bg7Wueh+N3Vjc3Nzv7qpZ9OaK1zG3L7xKsLU9n5tnE6newt7e3gx8PZ16kDT8uWBsezpyjidV/a4nWnJu07WcFa9vzmXQ6sTrNJFqnjTo8IVgdpnTijMffWf3p/yp4aozHHwuP0fLqLSBYvef38wt2sZo2RNGa5rTlpwRry9PxnVX5dESrnHTogoI1lLtuM99ZLbf0cYfldmu/U7DWnsCC/X0wdAHav94iWucbrrGCYK2hfsaeYnUGnmjV4a20kmCtBL9kW7Faovb/7/GdVr1pckXBSuoWri1WhZi+08phhlcWrDBwxfJiVaHoO628Yn4Hwcobn7WDT7GfxTfrzX48nMW1ysOCtQr7tE3FappT5VP+hKdSs34twao3LVlRrEoYFy0iWovYhrxJsIYwz9tErOZ5JZ4WrYTq+WsK1vmG5Sv4FHs56ewF/QnPbLIhbxCsIczTNxGr6VbpJ0UrLTx/fcGabxZ7h1jFaBcvLFqL6SJvFKwI6/xFxWq+2ah3+LjDKOnT+wjWaaP4Ez4YGic+ewPROpuwZAHBKmFcvohYLbcb/U7RGi3++36CteIMxGpF/IVbi9ZCuKK3CVYR5NxlxGqu2HaeF631ZiFYK9iL1QroxVuKVjHoxOUEayJU1WM+xV4luf46ojV+BoI10FysBmIP2sqf8AyC/mcbwRrkLVaDoFfYRrTGoQvWAGuxGoC88haiNWYAgjXA2afYByCvvIU/4RkzAMEKOz8/P/s/M4eNt7L83d3d4f7+fivH2eU5BCs81tfX18PX11d4F8tvQeDi4uJwe3u7haPs9gyCFR7tx8fH4fPzM7yL5bcgIFj5KQhW2FiwwsAbWv7y8vJwdXW1oRPt7yiCFZ6pYIWBN7S8YOWHIVhhY8EKA29o+ePvr44/FnrlBAQrZ/uz8vEX7sdfvHvtX0Cw8jMWrLCxYIWBN7S8YOWHIVh548PLy8uAXWyxtsDDw8PaR9j9/oI1YMTH32N57V/AvxDmZyxYeWM7ECBQJCBYRZCWIUAgLyBYeWM7ECBQJCBYRZCWIUAgLyBYeWM7ECBQJCBYRZCWIUAgLyBYeWM7ECBQJCBYRZCWIUAgLyBYeWM7ECBQJCBYRZCWIUAgLyBYeWM7ECBQJCBYRZCWIUAgLyBYeWM7ECBQJCBYRZCWIUAgLyBYeWM7ECBQJCBYRZCWIUAgLyBYeWM7ECBQJCBYRZCWIUAgLyBYeWM7ECBQJCBYRZCWIUAgLyBYeWM7ECBQJCBYRZCWIUAgLyBYeWM7ECBQJCBYRZCWIUAgLyBYeWM7ECBQJCBYRZCWIUAgLyBYeWM7ECBQJCBYRZCWIUAgLyBYeWM7ECBQJCBYRZCWIUAgLyBYeWM7ECBQJCBYRZCWIUAgLyBYeWM7ECBQJCBYRZCWIUAgLyBYeWM7ECBQJCBYRZCWIUAgLyBYeWM7ECBQJCBYRZCWIUAgLyBYeWM7ECBQJCBYRZCWIUAgLyBYeWM7ECBQJCBYRZCWIUAgLyBYeWM7ECBQJCBYRZCWIUAgLyBYeWM7ECBQJCBYRZCWIUAgLyBYeWM7ECBQJPA3ethGoogKnnwAAAAASUVORK5CYII=
;file_total_lines: 10371
;estimated_time(s): 9602.18
;nozzle_temperature(°C): 220
;build_plate_temperature(°C): 65
;work_speed(mm/minute): 1800
;max_x(mm): 18.75000762939453
;max_y(mm): 36.25001525878906
;max_z(mm): 4
;min_x(mm): -18.75000762939453
;min_y(mm): -36.25001525878906
;min_z(mm): 0

;Header End

; G-code for 3dp engraving
; Generated by Snapmaker Luban 3.15.0
; Thu Oct 07 2021 22:57:26

M82 ;absolute extrusion mode
;Start GCode begin
M104 S220
M140 S65
G28 ;home
G90 ;absolute positioning
G1 X-10 Y-10 F3000
G1 Z0 F1800
M109 S220;Wait for Hotend Temperature
M190 S65;Wait for Bed Temperature
G92 E0
G1 E20 F200
G92 E0
;Start GCode end
G92 E0
G1 F1500 E-6.5
;LAYER_COUNT:26
;LAYER:0
M107
G0 F1200 X80.65 Y98.15 Z0.3
;TYPE:WALL-INNER
G1 F1500 E0
G1 F1080 X44.35 Y98.15 E1.81101
G1 X44.35 Y26.85 E5.36819
G1 X80.65 Y26.85 E7.1792
G1 X80.65 Y98.15 E10.73637
G0 F1200 X81.05 Y98.55
;TYPE:WALL-OUTER
G1 F1080 X43.95 Y98.55 E12.5873
G1 X43.95 Y26.45 E16.18438
G1 X81.05 Y26.45 E18.03531
G1 X81.05 Y98.55 E21.63239
G0 F1200 X80.85 Y98.55
G0 X80.26 Y97.76

; rest removed intentionally
